X: 37616
T: Snake In The Cupboard
R: jig
M: 6/8
K: Bminor
"Bm" BBf fed|"A" efe edc|"G" B2f fed|"Em" gfg fed|
"Bm" B2f fed|"A" efe edc|"G" BBf fef|1 "Em" afa fdA:|2 "Em" a3 fdA||
|:"Bm" ABc dcd|efe edA|"F#m" Bcd edc|fgf edc|
"Bm" cde edc|gfe fed|"A" cde cde|"G" cde aec:|
|:"Bm" FGF FDD|"G" FGF FDD|"Em" EFE EFG|"G" AGF FDD
[1 "Bm" FGF FDD|"G" FGF FDD|"Em" EFE EFG|FGA Bcf:|
[2 "Em" EFE EFG|FGA Bcf|"G" gaf gef|"A" ded fed||

